X:14122
T:Reel de Portneuf
C:Joseph Allard
M:2/4
L:1/16
K:Bb
(3fga|bfdB FBdf|gecB AGFE|DFBc dBed|cf=eg f2ga|!
bfdB FBdf|gecB AGFE|DFBd cBAc|Bbfd B2:|!
|:FD|B,DFB dBFD|CEGc ecAc|Bdfd egce|dfBd cAFD|!
B,DFB dBFD|CEGc ecAc|Bdfd gecA|Bbfd B2:|!
